X: 12821
T: Feet Washing, The
R: jig
M: 6/8
K: Amajor
f|ecA A>BA|Bce f2 e|f/g/af ece|f/g/ac B2
a|ecA A>BA|Bce f2 g|agf ece|f/g/ac A2:|
e|f/g/ae f2 e|f/g/af ece|f/g/ae f2 e|fac B2
e|f/g/ae f2 e|f/g/af ece|f/g/ae f2 e|fac A2
e|f/g/ae f2 e|f/g/af ece|f/g/ae f2e|fac B2
e|ecA A>BA|Bce f2 g|agf ece|f/g/ac A2||

